dhis-2/dhis-support/dhis-support-system/src/main/resources/SVGs/pregnant_0812w_negative.svg

<svg width="48" height="48" viewBox="0 0 48 48" fill="none" xmlns="http://www.w3.org/2000/svg">
<path fill-rule="evenodd" clip-rule="evenodd" d="M0 0V47.9994H47.9994V0H0ZM23.9997 4.00975C27.7851 4.00975 31.4154 5.51349 34.0921 8.19016C36.7688 10.8668 38.2725 14.4972 38.2725 18.2826C38.2727 20.157 37.9036 22.0131 37.1864 23.7449C36.4691 25.4766 35.4178 27.0502 34.0925 28.3756C32.7671 29.7011 31.1936 30.7525 29.4619 31.4698C27.7302 32.1872 25.8741 32.5564 23.9997 32.5564C22.1253 32.5564 20.2692 32.1872 18.5375 31.4698C16.8058 30.7525 15.2323 29.7011 13.9069 28.3756C12.5816 27.0502 11.5303 25.4766 10.813 23.7449C10.0958 22.0131 9.72675 20.157 9.72688 18.2826C9.72688 14.4972 11.2306 10.8668 13.9073 8.19016C16.584 5.51349 20.2143 4.00975 23.9997 4.00975ZM23.9997 5.96873C20.7339 5.96899 17.602 7.26642 15.2928 9.57566C12.9836 11.8849 11.6861 15.0168 11.6859 18.2826C11.6859 21.5485 12.9832 24.6807 15.2924 26.9901C17.6017 29.2996 20.7338 30.5972 23.9997 30.5974C27.2656 30.5972 30.3977 29.2996 32.707 26.9901C35.0162 24.6807 36.3135 21.5485 36.3135 18.2826C36.3133 15.0168 35.0158 11.8849 32.7066 9.57566C30.3974 7.26642 27.2655 5.96899 23.9997 5.96873ZM22.9117 6.66982C23.2217 6.66772 23.5177 6.94901 23.3007 7.30851C22.9807 7.8732 22.4857 8.3306 22.3027 9.06039C22.0877 9.89858 23.3457 9.80478 24.6187 10.0329C28.6766 10.7699 26.7837 12.8658 25.9017 12.8958C24.0447 13.1968 21.6977 12.6588 21.3707 16.5678C21.3877 17.5888 21.7837 18.5148 22.0117 19.4818C22.1307 20.4017 21.9987 21.3107 21.4647 22.2007C21.7297 22.1667 21.9717 22.1497 22.3087 22.0657C23.3357 21.7367 23.7417 21.4617 23.4407 20.8827C22.3647 19.6228 23.1497 18.1288 23.7297 17.4898C24.7477 16.4368 25.2717 15.8278 26.2707 15.5018C27.4547 15.1538 28.4746 16.1558 27.8726 17.0098C26.7137 18.3838 25.1757 19.0508 26.1247 20.1017C26.5147 20.3607 26.6517 20.4477 26.9467 20.7597C27.7017 21.9127 27.7487 22.2827 28.0956 23.3007C28.1026 24.0347 28.4886 24.8537 26.4037 26.0077C24.2287 26.6877 22.6157 27.9347 19.8238 27.9996C17.0628 27.7587 14.9558 25.6687 15.5818 23.7577L16.3478 21.5367C16.9118 20.0097 16.3228 19.5318 15.2358 19.5098L13.6678 19.4668C12.3878 19.4388 11.9119 17.2338 13.3998 16.6758C14.8118 16.2068 16.3758 16.5378 18.1388 16.9038C19.0178 17.0598 19.8838 17.6648 20.2377 18.9358C20.5977 20.2457 20.4147 21.0107 20.3707 21.9157C20.4177 22.1277 20.6067 22.2197 20.8627 22.2497C21.3657 21.2007 21.6157 20.2327 21.4647 19.3928C21.0077 18.1108 20.7457 17.1028 20.7947 16.5348C21.1757 12.6518 23.1167 12.6048 25.0037 12.4278C27.2777 12.2228 26.4807 10.8449 24.2677 10.7639C23.5007 10.7669 21.0437 10.6449 21.3477 9.21278C21.5867 8.219 22.1307 7.7253 22.4467 7.02331C22.5337 6.77421 22.7257 6.67112 22.9117 6.66982ZM31.8296 16.5898C32.7296 16.5888 33.6276 16.9288 34.3136 17.6148C35.6876 18.9868 35.6916 21.2157 34.3196 22.5897C32.9476 23.9647 30.7186 23.9697 29.3456 22.5977C27.9716 21.2257 27.9736 18.9958 29.3456 17.6228C30.0316 16.9358 30.9296 16.5918 31.8296 16.5918V16.5898ZM3.99995 33.9996H43.9995V43.9995H3.99995V33.9996ZM7.8671 35.0956C7.03901 35.0956 6.40472 35.3696 5.96283 35.9195C5.52443 36.4695 5.30463 37.2765 5.30463 38.3375V39.7355C5.31503 40.7555 5.54003 41.5375 5.97842 42.0835C6.41682 42.6295 7.04871 42.9035 7.8769 42.9035C8.71539 42.9035 9.35208 42.6245 9.78698 42.0675C10.2219 41.5115 10.4389 40.7085 10.4389 39.6575V38.2595C10.4289 37.2395 10.2059 36.4585 9.76748 35.9155C9.32908 35.3696 8.69519 35.0956 7.8671 35.0956ZM14.0098 35.0956C13.2688 35.0956 12.6828 35.2896 12.2518 35.6756C11.8199 36.0585 11.6039 36.5735 11.6039 37.2205C11.6039 37.5895 11.6939 37.9155 11.8749 38.2005C12.0588 38.4855 12.3128 38.7135 12.6368 38.8845C12.2708 39.0585 11.9808 39.3015 11.7659 39.6145C11.5499 39.9275 11.4409 40.2955 11.4409 40.7165C11.4409 41.3875 11.6739 41.9205 12.1368 42.3135C12.5988 42.7075 13.2258 42.9035 14.0158 42.9035C14.8048 42.9035 15.4288 42.7095 15.8888 42.3195C16.3478 41.9265 16.5778 41.3915 16.5778 40.7165C16.5778 40.2955 16.4698 39.9305 16.2538 39.6205C16.0378 39.3075 15.7458 39.0615 15.3768 38.8845C15.7008 38.7135 15.9558 38.4855 16.1408 38.2005C16.3248 37.9155 16.4158 37.5895 16.4158 37.2205C16.4158 36.5665 16.1988 36.0485 15.7638 35.6696C15.3318 35.2866 14.7468 35.0956 14.0098 35.0956ZM30.3826 35.0956C29.8706 35.0956 29.4126 35.2066 29.0096 35.4256C28.6056 35.6416 28.2926 35.9395 28.0696 36.3215C27.8507 36.7045 27.7417 37.1265 27.7417 37.5895H29.2556C29.2556 37.2065 29.3536 36.9005 29.5486 36.6675C29.7466 36.4305 30.0156 36.3115 30.3566 36.3115C30.6736 36.3115 30.9166 36.4085 31.0876 36.6035C31.2576 36.7945 31.3436 37.0605 31.3436 37.3975C31.3436 37.6445 31.2606 37.9045 31.0976 38.1795C30.9376 38.4545 30.6886 38.7775 30.3516 39.1455L27.8947 41.7655V42.7985H33.1016V41.5835H29.8356L31.5616 39.7615C32.0356 39.2425 32.3696 38.7895 32.5636 38.3995C32.7586 38.0105 32.8566 37.6275 32.8566 37.2515C32.8566 36.5655 32.6396 36.0355 32.2046 35.6596C31.7736 35.2836 31.1656 35.0956 30.3826 35.0956ZM25.2577 35.1886L22.1107 36.3155V37.5425L23.9117 36.9855V42.7985H25.4197V35.1886H25.2577ZM33.6966 35.2006L35.3826 42.7985H36.9585L38.1965 37.7165L39.4335 42.7985H41.0095L42.6945 35.2006H41.1345L40.1105 40.6065L38.8645 35.2006H37.5385L36.2865 40.5975L35.2576 35.2006H33.6966ZM14.0098 36.3115C14.2948 36.3115 14.5168 36.4025 14.6738 36.5835C14.8298 36.7605 14.9078 36.9965 14.9078 37.2925C14.9078 37.5955 14.8298 37.8385 14.6738 38.0225C14.5208 38.2075 14.3008 38.3005 14.0158 38.3005C13.7298 38.3005 13.5098 38.2075 13.3538 38.0225C13.1968 37.8385 13.1168 37.5955 13.1168 37.2925C13.1168 36.9865 13.1968 36.7455 13.3538 36.5715C13.5098 36.3975 13.7278 36.3115 14.0098 36.3115ZM7.8671 36.3155C8.2324 36.3155 8.49929 36.4605 8.66979 36.7495C8.84379 37.0345 8.93149 37.4925 8.93149 38.1225V39.9295C8.92459 40.5245 8.83919 40.9645 8.67569 41.2535C8.51209 41.5425 8.2457 41.6875 7.8769 41.6875C7.50451 41.6875 7.23291 41.5375 7.06241 41.2375C6.89541 40.9355 6.81241 40.4745 6.81241 39.8545V38.0075C6.82281 37.4265 6.91101 37.0015 7.07801 36.7295C7.24851 36.4555 7.51221 36.3155 7.8671 36.3155ZM17.6578 38.9375V40.1535H20.5977V38.9375H17.6578ZM14.0058 39.5175C14.3288 39.5175 14.5858 39.6155 14.7768 39.8135C14.9688 40.0125 15.0638 40.2765 15.0638 40.6065C15.0638 40.9445 14.9708 41.2085 14.7828 41.3995C14.5988 41.5915 14.3428 41.6875 14.0158 41.6875C13.6818 41.6875 13.4198 41.5885 13.2318 41.3905C13.0448 41.1915 12.9508 40.9305 12.9508 40.6065C12.9508 40.2725 13.0468 40.0085 13.2378 39.8135C13.4298 39.6155 13.6858 39.5175 14.0058 39.5175Z" fill="#333333"/>
</svg>

<?xml version="1.0" encoding="UTF-8" standalone="no"?>
<!-- Created with Inkscape (http://www.inkscape.org/) -->
<svg id="svg8" xmlns:rdf="http://www.w3.org/1999/02/22-rdf-syntax-ns#" xmlns="http://www.w3.org/2000/svg" xmlns:osb="http://www.openswatchbook.org/uri/2009/osb" height="48" width="48" version="1.1" xmlns:cc="http://creativecommons.org/ns#" viewBox="0 0 12.7 12.7" xmlns:dc="http://purl.org/dc/elements/1.1/">
 <title id="title4753">UIO-icon</title>
 <metadata id="metadata5">
  <rdf:RDF>
   <cc:Work rdf:about="">
    <dc:format>image/svg+xml</dc:format>
    <dc:type rdf:resource="http://purl.org/dc/dcmitype/StillImage"/>
    <dc:title>UIO-icon</dc:title>
    <dc:creator>
     <cc:Agent>
      <dc:title>Joaquín Urbano</dc:title>
     </cc:Agent>
    </dc:creator>
    <dc:rights>
     <cc:Agent>
      <dc:title>GPL</dc:title>
     </cc:Agent>
    </dc:rights>
   </cc:Work>
  </rdf:RDF>
 </metadata>
 <g id="layer1" transform="translate(0,-284.3)">
  <path id="rect4867" d="m0 0v48h48v-48h-48zm24 4.0098a14.273 14.273 0 0 1 14.273 14.273 14.273 14.273 0 0 1 -14.273 14.274 14.273 14.273 0 0 1 -14.273 -14.274 14.273 14.273 0 0 1 14.273 -14.273zm0 1.959a12.315 12.315 0 0 0 -12.314 12.314 12.315 12.315 0 0 0 12.314 12.315 12.315 12.315 0 0 0 12.314 -12.315 12.315 12.315 0 0 0 -12.314 -12.314zm-1.088 0.7011c0.31-0.0021 0.606 0.2792 0.389 0.6387-0.32 0.5647-0.815 1.0221-0.998 1.7519-0.215 0.8382 1.043 0.7444 2.316 0.9725 4.058 0.737 2.165 2.833 1.283 2.863-1.857 0.301-4.204-0.237-4.531 3.672 0.017 1.021 0.413 1.947 0.641 2.914 0.119 0.92-0.013 1.829-0.547 2.719 0.265-0.034 0.507-0.051 0.844-0.135 1.027-0.329 1.433-0.604 1.132-1.183-1.076-1.26-0.291-2.754 0.289-3.393 1.018-1.053 1.542-1.662 2.541-1.988 1.184-0.348 2.204 0.654 1.602 1.508-1.159 1.374-2.697 2.041-1.748 3.092 0.39 0.259 0.527 0.346 0.822 0.658 0.755 1.153 0.802 1.523 1.149 2.541 0.007 0.734 0.393 1.553-1.692 2.707-2.175 0.68-3.788 1.927-6.58 1.992-2.761-0.241-4.868-2.331-4.242-4.242l0.766-2.221c0.564-1.527-0.025-2.005-1.112-2.027l-1.568-0.043c-1.28-0.028-1.756-2.233-0.268-2.791 1.412-0.469 2.976-0.138 4.739 0.228 0.879 0.156 1.745 0.761 2.099 2.032 0.36 1.31 0.177 2.075 0.133 2.98 0.047 0.212 0.236 0.304 0.492 0.334 0.503-1.049 0.753-2.017 0.602-2.857-0.457-1.282-0.719-2.29-0.67-2.858 0.381-3.883 2.322-3.93 4.209-4.107 2.274-0.205 1.477-1.583-0.736-1.664-0.767 0.003-3.224-0.119-2.92-1.5511 0.239-0.9938 0.783-1.4875 1.099-2.1895 0.087-0.2491 0.279-0.3522 0.465-0.3535zm8.918 9.9201c0.9-0.001 1.798 0.339 2.484 1.025 1.374 1.372 1.378 3.601 0.006 4.975-1.372 1.375-3.601 1.38-4.974 0.008-1.374-1.372-1.372-3.602 0-4.975 0.686-0.687 1.584-1.031 2.484-1.031v-0.002zm-27.83 17.41h40v10h-40v-10zm3.8672 1.096c-0.8281 0-1.4624 0.274-1.9043 0.824-0.4384 0.55-0.6582 1.357-0.6582 2.418v1.398c0.0104 1.02 0.2354 1.802 0.6738 2.348s1.0703 0.82 1.8985 0.82c0.8385 0 1.4752-0.279 1.9101-0.836 0.4349-0.556 0.6519-1.359 0.6519-2.41v-1.398c-0.01-1.02-0.233-1.801-0.6714-2.344-0.4384-0.546-1.0723-0.82-1.9004-0.82zm6.1428 0c-0.741 0-1.327 0.194-1.758 0.58-0.432 0.383-0.648 0.898-0.648 1.545 0 0.369 0.09 0.695 0.271 0.98 0.184 0.285 0.438 0.513 0.762 0.684-0.366 0.174-0.656 0.417-0.871 0.73-0.216 0.313-0.325 0.681-0.325 1.102 0 0.671 0.233 1.204 0.696 1.597 0.462 0.394 1.089 0.59 1.879 0.59 0.789 0 1.413-0.194 1.873-0.584 0.459-0.393 0.689-0.928 0.689-1.603 0-0.421-0.108-0.786-0.324-1.096-0.216-0.313-0.508-0.559-0.877-0.736 0.324-0.171 0.579-0.399 0.764-0.684 0.184-0.285 0.275-0.611 0.275-0.98 0-0.654-0.217-1.172-0.652-1.551-0.432-0.383-1.017-0.574-1.754-0.574zm16.373 0c-0.512 0-0.97 0.111-1.373 0.33-0.404 0.216-0.717 0.514-0.94 0.896-0.219 0.383-0.328 0.805-0.328 1.268h1.514c0-0.383 0.098-0.689 0.293-0.922 0.198-0.237 0.467-0.356 0.808-0.356 0.317 0 0.56 0.097 0.731 0.292 0.17 0.191 0.256 0.457 0.256 0.794 0 0.247-0.083 0.507-0.246 0.782-0.16 0.275-0.409 0.598-0.746 0.966l-2.457 2.62v1.033h5.207v-1.215h-3.266l1.726-1.822c0.474-0.519 0.808-0.972 1.002-1.362 0.195-0.389 0.293-0.772 0.293-1.148 0-0.686-0.217-1.216-0.652-1.592-0.431-0.376-1.039-0.564-1.822-0.564zm-5.125 0.093l-3.147 1.127v1.227l1.801-0.557v5.813h1.508v-7.61h-0.162zm8.439 0.012l1.686 7.598h1.576l1.238-5.082 1.237 5.082h1.576l1.685-7.598h-1.56l-1.024 5.406-1.246-5.406h-1.326l-1.252 5.397-1.029-5.397h-1.561zm-19.687 1.111c0.285 0 0.507 0.091 0.664 0.272 0.156 0.177 0.234 0.413 0.234 0.709 0 0.303-0.078 0.546-0.234 0.73-0.153 0.185-0.373 0.278-0.658 0.278-0.286 0-0.506-0.093-0.662-0.278-0.157-0.184-0.237-0.427-0.237-0.73 0-0.306 0.08-0.547 0.237-0.721 0.156-0.174 0.374-0.26 0.656-0.26zm-6.1428 0.004c0.3653 0 0.6322 0.145 0.8027 0.434 0.174 0.285 0.2617 0.743 0.2617 1.373v1.807c-0.0069 0.595-0.0923 1.035-0.2558 1.324-0.1636 0.289-0.43 0.434-0.7988 0.434-0.3724 0-0.644-0.15-0.8145-0.45-0.167-0.302-0.25-0.763-0.25-1.383v-1.847c0.0104-0.581 0.0986-1.006 0.2656-1.278 0.1705-0.274 0.4342-0.414 0.7891-0.414zm9.7908 2.622v1.216h2.94v-1.216h-2.94zm-3.652 0.58c0.323 0 0.58 0.098 0.771 0.296 0.192 0.199 0.287 0.463 0.287 0.793 0 0.338-0.093 0.602-0.281 0.793-0.184 0.192-0.44 0.288-0.767 0.288-0.334 0-0.596-0.099-0.784-0.297-0.187-0.199-0.281-0.46-0.281-0.784 0-0.334 0.096-0.598 0.287-0.793 0.192-0.198 0.448-0.296 0.768-0.296z" fill-rule="evenodd" transform="matrix(.26458 0 0 .26458 0 284.3)" fill="#333"/>
 </g>
</svg>
